Origami/16x16/apps/mps.svg

<svg width="16" height="16" version="1" xmlns="http://www.w3.org/2000/svg">
 <path d="m8 0h-7.2c-0.4432 0-0.8 0.3568-0.8 0.8v7.2h8z" style="fill:#f7c73c"/>
 <path d="m8 0h7.2c0.4432 0 0.8 0.3568 0.8 0.8v7.2h-8z" style="fill:#21d789"/>
 <path d="m8 16h-7.2c-0.4432 0-0.8-0.3568-0.8-0.8v-7.2h8z" style="fill:#21d789"/>
 <path d="m8 16h7.2c0.4432 0 0.8-0.3568 0.8-0.8v-7.2h-8z" style="fill:#2086e7"/>
 <rect x="2" y="2" width="12" height="12" style="fill:#3f3f3f"/>
 <path d="m3.5042927 11.5h4.0000003" style="fill:none;stroke-linecap:round;stroke:#ffffff"/>
 <path d="m5.5042927 7.500002v-4.000001m-3 0 1.5 1.999999 1.5-1.999999m-3 4.000001v-4.000001" style="fill:none;stroke-linecap:round;stroke-linejoin:round;stroke-width:.99999994;stroke:#ffffff"/>
 <path d="m7.507074 5.5s2.000002 0.23225 2.000002-0.9999985c0-1.2322505-2.000002-1.0000005-2.000002-1.0000005m4.9e-5 4.00005v-4.000001" style="fill:none;stroke-linecap:round;stroke-linejoin:bevel;stroke-width:.99999994;stroke:#ffffff"/>
 <path d="m11.503232 7s0.252193 0.500484 1 0.500242c0.747806-2.4e-4 0.999999-0.500242 0.999999-1.000241 0-2.1071925-1.999999 0.105581-1.994009-1.9953525-0.006044-0.5046485 0.235934-1.0046475 0.99401-1.0046475 0.758075 0 0.999942 0.499999 0.999942 0.499999" style="fill:none;stroke-linecap:round;stroke-linejoin:round;stroke-width:.99999994;stroke:#ffffff"/>
</svg>

<svg xmlns="http://www.w3.org/2000/svg" width="16" height="16" version="1">
 <path style="fill:#f7c73c" d="M 8,0 H 0.8 C 0.3568,0 0,0.3568 0,0.8 V 8 h 8 z"/>
 <path style="fill:#21d789" d="m 8,0 h 7.2 C 15.6432,0 16,0.3568 16,0.8 V 8 H 8 Z"/>
 <path style="fill:#21d789" d="M 8,16 H 0.8 C 0.3568,16 0,15.6432 0,15.2 V 8 h 8 z"/>
 <path style="fill:#2086e7" d="m 8,16 h 7.2 C 15.6432,16 16,15.6432 16,15.2 V 8 H 8 Z"/>
 <rect style="fill:#3f3f3f" width="12" height="12" x="2" y="2"/>
 <path style="fill:none;stroke:#ffffff;stroke-linecap:round" d="M 3.5042927,11.5 H 7.504293"/>
 <path style="fill:none;stroke:#ffffff;stroke-width:0.99999994;stroke-linecap:round;stroke-linejoin:round" d="M 5.5042927,7.500002 V 3.500001 m -3,0 1.5,1.999999 1.5,-1.999999 m -3,4.000001 V 3.500001"/>
 <path style="fill:none;stroke:#ffffff;stroke-width:0.99999994;stroke-linecap:round;stroke-linejoin:bevel" d="m 7.507074,5.5 c 0,0 2.000002,0.23225 2.000002,-0.9999985 0,-1.2322505 -2.000002,-1.0000005 -2.000002,-1.0000005 m 4.9e-5,4.00005 V 3.50005"/>
 <path style="fill:none;stroke:#ffffff;stroke-width:0.99999994;stroke-linecap:round;stroke-linejoin:round" d="m 11.503232,7 c 0,0 0.252193,0.500484 1,0.500242 C 13.251038,7.500002 13.503231,7 13.503231,6.500001 c 0,-2.1071925 -1.999999,0.105581 -1.994009,-1.9953525 C 11.503178,4 11.745156,3.500001 12.503232,3.500001 13.261307,3.500001 13.503174,4 13.503174,4"/>
</svg>
